X: 34690
T: Road To Errogie, The
R: reel
M: 4/4
K: Gmajor
DGG2 AGAB|dGG2 AGBd|e3g edBG|A3B AGEG|
DGG2 AGAB|dGG2 AGBd|e3g edBG|AGAB G3E:|
dg g2 g2ag|ab3 g3d|e2dg2de2-|edgd edBc|
dgg2 g2ag|ab3 g3d|e3g edBG|AGBA G4|
dg g2 g2ag|ab3 g3d|e2d g<dee-|e>dgd edBG|
DGG2 AGAB|dGG2 AGBd|e3g edBG|AGBA G3E||

